X: 16486
T: Hags Money, The
R: jig
M: 6/8
K: Gmajor
d|:cAG AAG|FAD ~D3|~G3 GAB|ded cAd|
cAG AAG|FAD ~D3|~F3 FGA|c3 A2d:|
|:BGG DGG|BGG DGG|BGG GAB|ded cAd|
BGG DGG|BGG GAB|cAG FGA|c3 A2d:|

